img/icon/icon-login.svg

<svg width="20" height="17" viewBox="0 0 20 17" fill="none" xmlns="http://www.w3.org/2000/svg">
<path d="M14.1667 8.5L5.71429 0V6H0V11H5.71429V17L14.1667 8.5Z" fill="#3D546F"/>
<path d="M16.1771 15.01H11.3895V17H16.1771C18.2514 17 19.0381 15.19 19.0619 13.974V3.028C19.0381 1.811 18.2514 0 16.1771 0H11.3895V1.99H16.1771C16.9762 1.99 17.1219 2.671 17.1391 3.047V13.951C17.1229 14.327 16.9762 15.01 16.1771 15.01Z" fill="#3D546F"/>
</svg>

<svg width="20" height="17" fill="none" xmlns="http://www.w3.org/2000/svg"><path d="M14.17 8.5L5.7 0v6H0v5h5.71v6l8.46-8.5z" fill="#C5C5C5"/><path d="M16.18 15.01h-4.8V17h4.8c2.07 0 2.86-1.81 2.88-3.03V3.03C19.04 1.8 18.26 0 16.18 0h-4.8v1.99h4.8c.8 0 .94.68.96 1.06v10.9c-.02.38-.16 1.06-.96 1.06z" fill="#C5C5C5"/></svg>
